icon_installer/data/icons/scalable/actions/show-touchpad-disabled-symbolic.svg

<?xml version="1.0" encoding="UTF-8"?>
<svg height="16px" viewBox="0 0 16 16" width="16px" xmlns="http://www.w3.org/2000/svg">
    <g fill="#222222">
        <path d="m 1.53125 0.46875 l -1.0625 1.0625 l 14 14 l 1.0625 -1.0625 z m 0 0"/>
        <path d="m 3.03125 1 c -0.851562 0 -1.617188 0.355469 -2.167969 0.925781 l 1.402344 1.398438 c 0.183594 -0.199219 0.453125 -0.324219 0.765625 -0.324219 h 8.9375 c 0.597656 0 1.03125 0.433594 1.03125 1.03125 v 5.96875 h -4.0625 l 1 1 h 3.0625 v 0.96875 c 0 0.597656 -0.433594 1.03125 -1.03125 1.03125 h -0.027344 l 1.570313 1.574219 c 0.890625 -0.53125 1.488281 -1.5 1.488281 -2.605469 v -7.9375 c 0 -1.667969 -1.363281 -3.03125 -3.03125 -3.03125 z m -2.9335938 2.28125 c -0.0625 0.242188 -0.0976562 0.492188 -0.0976562 0.75 v 7.9375 c 0 1.667969 1.363281 3.03125 3.03125 3.03125 h 8.785156 l -2 -2 h -1.816406 v -1.816406 l -1.183594 -1.183594 h -4.816406 v -4.816406 z m 1.9023438 7.71875 h 5 v 2 h -3.96875 c -0.597656 0 -1.03125 -0.433594 -1.03125 -1.03125 z m 0 0"/>
    </g>
</svg>

<svg xmlns="http://www.w3.org/2000/svg" width="16" height="16"><g fill="#222"><path d="M1.531.469.47 1.53l14 14 1.062-1.062zm0 0"/><path d="M3.031 1c-.851 0-1.617.355-2.168.926l1.403 1.398C2.449 3.125 2.719 3 3.03 3h8.938C12.566 3 13 3.434 13 4.031V10H8.937l1 1H13v.969c0 .597-.434 1.031-1.031 1.031h-.028l1.57 1.574A3.034 3.034 0 0 0 15 11.97V4.03A3.04 3.04 0 0 0 11.969 1zM.098 3.281a2.991 2.991 0 0 0-.098.75v7.938A3.04 3.04 0 0 0 3.031 15h8.785l-2-2H8v-1.816L6.816 10H2V5.184zM2 11h5v2H3.031C2.434 13 2 12.566 2 11.969zm0 0"/></g></svg>
